X:1
T:Title
%%score 1 2
L:1/8
Q:1/4=80
M:4/4
K:E
V:1 treble nm="Strings 1, Treble"
V:2 bass nm="Strings 1, Bass"
V:1
 z4 z2 E[EF] | [EG]3 [EG] [Ac][GB]E[EF] | [EG]4 [EB]2 [EG][FA] | [DB]3 [DB] [DF][FA][EG][DF] | %4
w: 1.~Com ing~|home~ all~ wea ry,~ bro ken|heart ed,~ I~ have~|glad ly~ left~ the~ path~ of~|
 [EG]6 [GB][GB] | [Ac]3 [Ac] [ce][ce][Bd][Ac] | [GB]4 [EG]2 E[EF] | [EG]3 [EB] [EF][EA][EG][DF] | %8
w: wrong;~ Oh,~ I~|long~ to~ join~ the~ hap py~|cho rus,~ Where~ they're~|sing ing~ sweet~ re demp tion's~|
 E6 [EG]E | [GB]6 [Ac][GB] | [EG]6 E[EF] | [EG]3 [EG] [Ac][GB][EG]E | [DF]6 [EG]E | %13
w: song.~ * *|||||
 [GB]6 [Ac][GB] | [EG]6 E[EF] | %15
w: ||
 [EG]3 [EB] [EF][EA] [EG]>[DF][Q:1/4=79][Q:1/4=78][Q:1/4=76][Q:1/4=75][Q:1/4=74][Q:1/4=73][Q:1/4=72][Q:1/4=71][Q:1/4=69][Q:1/4=68][Q:1/4=67][Q:1/4=66][Q:1/4=65][Q:1/4=64][Q:1/4=62][Q:1/4=61][Q:1/4=60] | %16
w: |
 E6 z2 |] %17
w: |
V:2
 z4 z2 [E,G,][E,A,] | [E,B,]3 [E,B,] [E,E][E,E][E,G,][E,A,] | [E,B,]4 [E,G,]2 [E,B,][E,B,] | %3
 [B,,B,]3 [B,,B,] [B,,B,][B,,B,][B,,B,][B,,B,] | [E,B,]6 [E,E][E,E] | %5
 [A,E]3 [A,E] [A,E][A,E][A,E][A,E] | [E,E]4 [E,B,]2 [E,G,][E,A,] | %7
 [E,B,]3 [E,G,] [A,,A,][A,,C][B,,B,][B,,A,] | [E,G,]6 z2 | z2 [E,E][E,E] [E,E]2 z2 | %10
 z2 [E,B,][E,B,] [E,B,]2 [E,G,][E,A,] | [E,B,]3 [E,B,] [E,E][E,E][E,B,][E,G,] | [B,,B,]6 z2 | %13
 z2 [E,E][E,E] [E,E]2 z2 | z2 [E,B,][E,B,] [E,B,]2 [E,G,][E,A,] | %15
 [E,B,]3 [E,G,] [A,,A,][A,,C] [B,,B,]>[B,,A,] | [E,G,]6 z2 |] %17

